X:1
T:Title
%%score { ( 1 4 ) | ( 2 3 5 ) }
L:1/8
M:4/4
K:A
V:1 treble nm="Grand Piano"
V:4 treble 
V:2 bass 
V:3 bass 
V:5 bass 
V:1
 z4 z2[Q:1/4=100] E2 | A2 E2 CEAB | c2 B2 A2 Bc | d2 c2 B2 A2 |[M:3/4] B6 |[M:1/4] cB | %6
[M:4/4] [A,CA]2 [CA]2 BA[EG][DF] | [CE]2 [CE]2 A2 c2 | [Ee]3 [Fd] [Ec]2 [DEB]2 |[M:3/4] [CEA]6 | %10
[M:1/4] cd |[M:4/4] e6 z2 | B6 z2 | d6 z2 |[M:3/4] c6 |[M:1/4] c z |[M:4/4] A6 z2 | z2 e4 z2 | %18
 c4 B4 |[M:3/4] [A,CA]6 |] %20
V:2
 z4 z2 E,2 | A,2 E,2 C,E,A,B, | C2 B,2 A,2[K:treble] [G,E][A,A] | %3
 [EG]2 [A,EA]2 [G,B,E]2[K:bass] [F,B,^D]2 |[M:3/4] [E,G,E]6 |[M:1/4] ED |[M:4/4] z4 .[F,D]2 z2 | %7
 [A,,A,]2 [A,,A,]2 [A,CE]2 [A,E]2 | [C,A,]3 [D,A,] [E,A,]2 E,2 |[M:3/4] A,,6 |[M:1/4] A,B, | %11
[M:4/4] C6 z2 | G,6 z2 | B,6 z2 |[M:3/4] A,2 A,2 A,2 |[M:1/4] [A,,A,][B,,G,] | %16
[M:4/4] C,2 A,,2 [C,A,]2 [E,G,E]2 | E6 z2 | [A,E]2 z2 [G,D]2 z2 |[M:3/4] A,,6 |] %20
V:3
 x8 | x8 | x6[K:treble] x2 | x6[K:bass] x2 |[M:3/4] x6 |[M:1/4] [E,G,]2 | %6
[M:4/4] A,,2 [A,,E,]2 D,-[D,A,F] [D,A,]2 | x8 | x8 |[M:3/4] x6 |[M:1/4] x2 | %11
[M:4/4] z2 A,2 A,2 A,2 | z2 E,2 E,2 G,A, | z2 E,2 E,2 G,2 |[M:3/4] x6 |[M:1/4] x2 |[M:4/4] x8 | %17
 z2 C4 z2 | E,2- [E,A,]2 E,2- [E,G,]2 |[M:3/4] x6 |] %20
V:4
 x8 | x8 | x8 | x8 |[M:3/4] x6 |[M:1/4] x2 |[M:4/4] x8 | x8 | x8 |[M:3/4] x6 |[M:1/4] x2 | %11
[M:4/4] z2 E2 E2 c2 | z2 E2 E2 Bc | z2 G2 G2 B2 |[M:3/4] z2 E2 E2 |[M:1/4] E-[EB] | %16
[M:4/4] [A,E]2 [CE]2 E2 B2 | c2 z2 A,2 [Fd]2 | z2 E2 z2 D2 |[M:3/4] x6 |] %20
V:5
 x8 | x8 | x6[K:treble] x2 | x6[K:bass] x2 |[M:3/4] x6 |[M:1/4] x2 |[M:4/4] x8 | x8 | x8 | %9
[M:3/4] x6 |[M:1/4] x2 |[M:4/4] x8 | x8 | x8 |[M:3/4] x6 |[M:1/4] x2 |[M:4/4] x8 | %17
 A,2 A,2 z2 [D,A,]2 | x8 |[M:3/4] x6 |] %20

